X: 1164
T: Isfahânlı Bir Güzel
C: Ahmet Avni Konuk
O: Turkey
F: http://compmusic.upf.edu/node/140
N: besteisfahan--kupe--agirevfer--isfahanli--ahmet_avni_konuk
N: makam= besteisfahan
N: form= kupe
N: usul= agirevfer = 9/4
M: 9/4
L: 1/16
K: C _1/4B   
Q: 1/4=72
%%MIDI tuningsystem comma53
z4 =B2^3/4c2 B4 c4 d4 c2e2 c4 d4 z4  | \
w:  Is *  *  fa han *  *  lı   | 
z4 c2d2 c4 d2e2 d2c2 c2d2 c2_2/4BA B2c2 B4  | 
w:  bir  *  *  gü *  zel  *  *  *  gör  | 
z4 _2/4B2c2 B4 c4 d8 e2fe d4 z4  | \
w:  düm  *  *  su âl  et  | 
z4 d2g2 ^2/4f4 e2=f2 e2d2 d2^3/4c2 d8 z4  | 
w:  tim  *  *  bu *  gün    | 
z4 d8 e4 e4 e2f2 a2g2 f2e2 d4  | z4 c2d2 c4 d4 e2f2 e2d2 c2_2/4BA B2c2 B4  | 
w:  Ey le miş  *  *  key  |  sû *  *  ye  Bes *  *  *  te   | 
z4 A2G2 A4 _2/4B2d2 c2{d}c2 B2A2 A3G ^3/4F4 G4  | \
w:  Is *  *  fa *  hân  *  *  *  *  hal  | 
z4 A2_2/4B2 c4 B2A2 A3G G2{A}G^F F8 z4  | 
w:  kın  *  *  bü *  tün    | 
|


